X: 30085
T: Oíche Nollag
R: jig
M: 6/8
K: Dmajor
|:g|f2 A d2 f|e2 d B2 g|f2 A d2 f|g3 a2 g|
f2 A d3|e2 d B3|d2 A B2 G|E3 D2:|
f|a2 b a2 f|d2 c d2 f|g2 f e2 d|BcB A3|
a2 b a2 f|d3 g2 f|e2 d c2 e|a3 f2 g|
a3 a2 f|d3- d2 f|g2 f e2 d|B3 A2 F|
A2 B A2 f|d2 f g2 b|a2 A e2 A|d3- d2||

